votai_general_theme/static/img/icon-difunde.svg

<?xml version="1.0" encoding="UTF-8" standalone="no"?>
<svg width="69px" height="65px" viewBox="0 0 69 65" version="1.1" xmlns="http://www.w3.org/2000/svg" xmlns:xlink="http://www.w3.org/1999/xlink">
    <!-- Generator: Sketch 39.1 (31720) - http://www.bohemiancoding.com/sketch -->
    <title>Artboard 2 Copy 3</title>
    <desc>Created with Sketch.</desc>
    <defs></defs>
    <g id="Page-1" stroke="none" stroke-width="1" fill="none" fill-rule="evenodd">
        <g id="Artboard-2-Copy-3">
            <g id="Group-8" transform="translate(1.000000, 3.000000)">
                <g id="Icon" fill="#FFC80A">
                    <circle id="Oval" cx="30" cy="30" r="30"></circle>
                </g>
                <path d="M45.736832,40.3042822 C45.6530576,39.852499 45.2242646,39.5535249 44.7723235,39.6387879 C44.3236892,39.7240509 44.0271717,40.1570097 44.1109462,40.6076855 L44.7061857,43.8155672 C44.8362566,44.4389836 44.7624028,44.9383811 44.4791129,45.3414425 C44.0503199,45.9537858 43.1144711,46.3789935 41.7994326,46.5650218 L34.6786039,47.3379253 C33.5553648,47.2925255 32.3472489,46.8451717 31.791692,44.063605 L31.4378552,42.1324536 C31.355183,41.6817778 30.9307993,41.380589 30.4744489,41.4680666 C30.0247124,41.551115 29.7292972,41.9840738 29.8119694,42.4347496 L30.1702154,44.3780815 C30.7654549,47.3755739 32.2855204,48.9302394 34.6841153,49 L34.7094681,49 C34.7392301,49 34.7678898,48.9988927 34.7976518,48.9955708 L42.0033573,48.2138088 C43.8353723,47.9535906 45.1228534,47.3091352 45.8327317,46.2970524 C46.3761634,45.520827 46.5459169,44.5452855 46.3287647,43.4944468 L45.736832,40.3042822 L45.736832,40.3042822 Z M66.8744499,34.2317855 L56.2350941,5.30769965 C55.8680297,4.30558267 54.7117217,3.74085377 53.6678479,4.11733971 C53.1640989,4.30447536 52.7639656,4.67653205 52.5401997,5.16707108 C52.3439911,5.5989226 52.3153314,6.07285196 52.4409931,6.52020583 L10.7378485,35.0722349 C10.482116,35.0345863 10.2186674,35.0578399 9.97836696,35.1530687 C9.59917732,35.2959119 9.29825066,35.5838129 9.13400863,35.9614061 C8.96205054,36.3500725 8.95653906,36.8007483 9.11196272,37.1938439 L11.1842782,42.5310857 C11.4278855,43.1666826 12.0286365,43.5619928 12.6624564,43.5619928 C12.8443352,43.5619928 13.0273162,43.5309881 13.2036835,43.4623348 C13.5090194,43.3427451 13.7592404,43.129034 13.9267893,42.8577427 L63.4308789,36.156293 C63.8034548,36.629115 64.3810576,36.9214453 65.0049568,36.9214453 C65.117391,36.9214453 65.2309274,36.9114795 65.3687143,36.8882259 C65.4701255,36.867187 65.5649229,36.8417188 65.6784594,36.8018556 C66.1877199,36.6191492 66.5900577,36.2504145 66.8160283,35.7631974 C67.0397943,35.2781949 67.0596356,34.7333976 66.8744499,34.2317855 L66.8744499,34.2317855 Z M13.2180133,41.277609 C12.9644854,41.3119357 12.7495378,41.4592081 12.6227738,41.6662754 L10.7191095,36.8151434 C11.0167293,36.8793674 11.3297812,36.7797094 11.5281944,36.5383155 L18.7581504,31.58974 L21.8666236,40.1060734 L13.2180133,41.277609 L13.2180133,41.277609 Z M23.5476242,39.8790745 L20.1679863,30.6252716 L53.0174936,8.13577343 L62.7419442,34.5739447 L23.5476242,39.8790745 L23.5476242,39.8790745 Z M65.3147019,35.0644838 C65.2893491,35.1209566 65.233132,35.1984685 65.0655831,35.2549414 L65.0049568,35.2604779 C64.882602,35.2604779 64.7315876,35.1929319 64.6753705,35.0390156 L54.0316054,6.10385668 C53.9941274,6.00309133 54.0183779,5.9145064 54.0426284,5.85914082 C54.0657766,5.8093118 54.1219937,5.71961956 54.2322232,5.67754172 C54.2730081,5.66425398 54.3148954,5.6565028 54.354578,5.6565028 C54.4769328,5.6565028 54.6257427,5.72515612 54.683062,5.88239436 L65.3235202,34.8098021 C65.3643052,34.9194259 65.3422592,35.0091182 65.3147019,35.0644838 L65.3147019,35.0644838 Z" id="Fill-198" stroke="#4990E2" stroke-width="0.550000012" fill="#4990E2"></path>
            </g>
        </g>
    </g>
</svg>

<svg width="68" height="60" viewBox="0 0 68 60" xmlns="http://www.w3.org/2000/svg"><title>Group 8</title><g fill="none" fill-rule="evenodd"><circle cx="30" cy="30" r="30" fill="#FFC80A"/><path d="M45.737 40.304c-.084-.452-.513-.75-.965-.665-.448.084-.745.517-.66.968l.594 3.208c.13.623.056 1.122-.227 1.525-.43.614-1.366 1.04-2.68 1.225l-7.12.773c-1.125-.045-2.333-.493-2.888-3.274l-.354-1.932c-.083-.45-.507-.75-.964-.664-.45.083-.745.516-.662.967l.358 1.943c.595 2.998 2.116 4.552 4.514 4.622h.025c.03 0 .058 0 .088-.004l7.205-.782c1.832-.26 3.12-.905 3.83-1.917.543-.776.713-1.752.496-2.803l-.593-3.19zm21.137-6.072L56.234 5.308c-.366-1.002-1.522-1.567-2.566-1.19-.504.186-.904.56-1.128 1.05-.196.43-.225.905-.1 1.352L10.74 35.072c-.256-.037-.52-.014-.76.08-.38.144-.68.432-.844.81-.172.388-.177.84-.022 1.232l2.072 5.337c.244.637.845 1.032 1.478 1.032.182 0 .365-.03.542-.1.305-.12.555-.333.723-.604l49.504-6.702c.373.473.95.765 1.575.765.112 0 .226-.01.364-.032.1-.02.195-.046.308-.086.51-.183.912-.552 1.138-1.04.224-.484.244-1.03.058-1.53zm-53.656 7.046c-.254.034-.468.18-.595.388l-1.904-4.85c.297.063.61-.036.808-.278l7.23-4.948 3.11 8.516-8.65 1.172zm10.33-1.4l-3.38-9.253 32.85-22.49 9.724 26.44-39.194 5.304zm41.767-4.814c-.026.057-.082.134-.25.19l-.06.006c-.122 0-.273-.067-.33-.22L54.032 6.103c-.038-.1-.014-.19.01-.245.024-.05.08-.14.19-.182.04-.014.083-.02.123-.02.122 0 .27.067.328.224l10.64 28.928c.04.11.02.2-.008.254z" stroke="#4990E2" stroke-width=".55" fill="#4990E2"/></g></svg>
